assets/icons/qvision/pool.svg

<svg xmlns="http://www.w3.org/2000/svg" height="24" viewBox="0 0 24 24" width="24"><path d="M0 0h24v24H0z" fill="none"/><path d="M22 21c-1.11 0-1.73-.37-2.18-.64-.37-.22-.6-.36-1.15-.36-.56 0-.78.13-1.15.36-.46.27-1.07.64-2.18.64s-1.73-.37-2.18-.64c-.37-.22-.6-.36-1.15-.36-.56 0-.78.13-1.15.36-.46.27-1.08.64-2.19.64-1.11 0-1.73-.37-2.18-.64-.37-.23-.6-.36-1.15-.36s-.78.13-1.15.36c-.46.27-1.08.64-2.19.64v-2c.56 0 .78-.13 1.15-.36.46-.27 1.08-.64 2.19-.64s1.73.37 2.18.64c.37.23.59.36 1.15.36.56 0 .78-.13 1.15-.36.46-.27 1.08-.64 2.19-.64 1.11 0 1.73.37 2.18.64.37.22.6.36 1.15.36s.78-.13 1.15-.36c.45-.27 1.07-.64 2.18-.64s1.73.37 2.18.64c.37.23.59.36 1.15.36v2zm0-4.5c-1.11 0-1.73-.37-2.18-.64-.37-.22-.6-.36-1.15-.36-.56 0-.78.13-1.15.36-.45.27-1.07.64-2.18.64s-1.73-.37-2.18-.64c-.37-.22-.6-.36-1.15-.36-.56 0-.78.13-1.15.36-.45.27-1.07.64-2.18.64s-1.73-.37-2.18-.64c-.37-.22-.6-.36-1.15-.36s-.78.13-1.15.36c-.47.27-1.09.64-2.2.64v-2c.56 0 .78-.13 1.15-.36.45-.27 1.07-.64 2.18-.64s1.73.37 2.18.64c.37.22.6.36 1.15.36.56 0 .78-.13 1.15-.36.45-.27 1.07-.64 2.18-.64s1.73.37 2.18.64c.37.22.6.36 1.15.36s.78-.13 1.15-.36c.45-.27 1.07-.64 2.18-.64s1.73.37 2.18.64c.37.22.6.36 1.15.36v2zM8.67 12c.56 0 .78-.13 1.15-.36.46-.27 1.08-.64 2.19-.64 1.11 0 1.73.37 2.18.64.37.22.6.36 1.15.36s.78-.13 1.15-.36c.12-.07.26-.15.41-.23L10.48 5C8.93 3.45 7.5 2.99 5 3v2.5c1.82-.01 2.89.39 4 1.5l1 1-3.25 3.25c.31.12.56.27.77.39.37.23.59.36 1.15.36z"/><circle cx="16.5" cy="5.5" r="2.5"/></svg>

<svg width="24" height="24" viewBox="0 0 24 24" fill="none" xmlns="http://www.w3.org/2000/svg">
<g clip-path="url(#clip0_147_6262)">
<path d="M22 21C20.89 21 20.27 20.63 19.82 20.36C19.45 20.14 19.22 20 18.67 20C18.11 20 17.89 20.13 17.52 20.36C17.06 20.63 16.45 21 15.34 21C14.23 21 13.61 20.63 13.16 20.36C12.79 20.14 12.56 20 12.01 20C11.45 20 11.23 20.13 10.86 20.36C10.4 20.63 9.78 21 8.67 21C7.56 21 6.94 20.63 6.49 20.36C6.12 20.13 5.89 20 5.34 20C4.79 20 4.56 20.13 4.19 20.36C3.73 20.63 3.11 21 2 21V19C2.56 19 2.78 18.87 3.15 18.64C3.61 18.37 4.23 18 5.34 18C6.45 18 7.07 18.37 7.52 18.64C7.89 18.87 8.11 19 8.67 19C9.23 19 9.45 18.87 9.82 18.64C10.28 18.37 10.9 18 12.01 18C13.12 18 13.74 18.37 14.19 18.64C14.56 18.86 14.79 19 15.34 19C15.89 19 16.12 18.87 16.49 18.64C16.94 18.37 17.56 18 18.67 18C19.78 18 20.4 18.37 20.85 18.64C21.22 18.87 21.44 19 22 19V21ZM22 16.5C20.89 16.5 20.27 16.13 19.82 15.86C19.45 15.64 19.22 15.5 18.67 15.5C18.11 15.5 17.89 15.63 17.52 15.86C17.07 16.13 16.45 16.5 15.34 16.5C14.23 16.5 13.61 16.13 13.16 15.86C12.79 15.64 12.56 15.5 12.01 15.5C11.45 15.5 11.23 15.63 10.86 15.86C10.41 16.13 9.79 16.5 8.68 16.5C7.57 16.5 6.95 16.13 6.5 15.86C6.13 15.64 5.9 15.5 5.35 15.5C4.8 15.5 4.57 15.63 4.2 15.86C3.73 16.13 3.11 16.5 2 16.5V14.5C2.56 14.5 2.78 14.37 3.15 14.14C3.6 13.87 4.22 13.5 5.33 13.5C6.44 13.5 7.06 13.87 7.51 14.14C7.88 14.36 8.11 14.5 8.66 14.5C9.22 14.5 9.44 14.37 9.81 14.14C10.26 13.87 10.88 13.5 11.99 13.5C13.1 13.5 13.72 13.87 14.17 14.14C14.54 14.36 14.77 14.5 15.32 14.5C15.87 14.5 16.1 14.37 16.47 14.14C16.92 13.87 17.54 13.5 18.65 13.5C19.76 13.5 20.38 13.87 20.83 14.14C21.2 14.36 21.43 14.5 21.98 14.5V16.5H22ZM8.67 12C9.23 12 9.45 11.87 9.82 11.64C10.28 11.37 10.9 11 12.01 11C13.12 11 13.74 11.37 14.19 11.64C14.56 11.86 14.79 12 15.34 12C15.89 12 16.12 11.87 16.49 11.64C16.61 11.57 16.75 11.49 16.9 11.41L10.48 5C8.93 3.45 7.5 2.99 5 3V5.5C6.82 5.49 7.89 5.89 9 7L10 8L6.75 11.25C7.06 11.37 7.31 11.52 7.52 11.64C7.89 11.87 8.11 12 8.67 12Z" fill="#323232"/>
<path d="M16.5 8C17.8807 8 19 6.88071 19 5.5C19 4.11929 17.8807 3 16.5 3C15.1193 3 14 4.11929 14 5.5C14 6.88071 15.1193 8 16.5 8Z" fill="#323232"/>
</g>
<defs>
<clipPath id="clip0_147_6262">
<rect width="24" height="24" fill="white"/>
</clipPath>
</defs>
</svg>
